svg/transgender-sharp.svg

<?xml version="1.0" encoding="UTF-8" standalone="no"?>
<svg
   xmlns:dc="http://purl.org/dc/elements/1.1/"
   xmlns:cc="http://creativecommons.org/ns#"
   xmlns:rdf="http://www.w3.org/1999/02/22-rdf-syntax-ns#"
   xmlns:svg="http://www.w3.org/2000/svg"
   xmlns="http://www.w3.org/2000/svg"
   xmlns:sodipodi="http://sodipodi.sourceforge.net/DTD/sodipodi-0.dtd"
   xmlns:inkscape="http://www.inkscape.org/namespaces/inkscape"
   class="ionicon"
   viewBox="0 0 512 512"
   version="1.1"
   id="svg6"
   sodipodi:docname="transgender-sharp.svg"
   inkscape:version="1.0.2 (e86c8708, 2021-01-15)">
  <metadata
     id="metadata12">
    <rdf:RDF>
      <cc:Work
         rdf:about="">
        <dc:format>image/svg+xml</dc:format>
        <dc:type
           rdf:resource="http://purl.org/dc/dcmitype/StillImage" />
      </cc:Work>
    </rdf:RDF>
  </metadata>
  <defs
     id="defs10" />
  <sodipodi:namedview
     pagecolor="#ffffff"
     bordercolor="#666666"
     borderopacity="1"
     objecttolerance="10"
     gridtolerance="10"
     guidetolerance="10"
     inkscape:pageopacity="0"
     inkscape:pageshadow="2"
     inkscape:window-width="689"
     inkscape:window-height="480"
     id="namedview8"
     showgrid="false"
     inkscape:zoom="1.3027344"
     inkscape:cx="256"
     inkscape:cy="256"
     inkscape:window-x="44"
     inkscape:window-y="25"
     inkscape:window-maximized="0"
     inkscape:current-layer="svg6" />
  <title
     id="title2">Transgender</title>
  <path
     style="color:#000000;font-style:normal;font-variant:normal;font-weight:normal;font-stretch:normal;font-size:medium;line-height:normal;font-family:sans-serif;font-variant-ligatures:normal;font-variant-position:normal;font-variant-caps:normal;font-variant-numeric:normal;font-variant-alternates:normal;font-variant-east-asian:normal;font-feature-settings:normal;font-variation-settings:normal;text-indent:0;text-align:start;text-decoration:none;text-decoration-line:none;text-decoration-style:solid;text-decoration-color:#000000;letter-spacing:normal;word-spacing:normal;text-transform:none;writing-mode:lr-tb;direction:ltr;text-orientation:mixed;dominant-baseline:auto;baseline-shift:baseline;text-anchor:start;white-space:normal;shape-padding:0;shape-margin:0;inline-size:0;clip-rule:nonzero;display:inline;overflow:visible;visibility:visible;isolation:auto;mix-blend-mode:normal;color-interpolation:sRGB;color-interpolation-filters:linearRGB;solid-color:#000000;solid-opacity:1;vector-effect:none;fill:#000000;fill-opacity:1;fill-rule:nonzero;stroke-width:1;stroke-linecap:butt;stroke-linejoin:miter;stroke-miterlimit:4;stroke-dasharray:none;stroke-dashoffset:0;stroke-opacity:1;color-rendering:auto;image-rendering:auto;shape-rendering:auto;text-rendering:auto;enable-background:accumulate;stop-color:#000000;stop-opacity:1;stroke:none;opacity:1"
     d="M 480,448.94 431.06,399.86 464,366.92 432.9,335.81 400,368.71 376.45,345.1 c 39.31803,-52.99834 39.2774,-125.49576 -0.1,-178.45 L 435.9,107.09 V 144 h 44 V 32 h -112 v 44 h 36.87 l -59.55,59.55 c -53.0062,-39.413792 -125.5838,-39.413792 -178.59,0 L 159.08,128 192.08,95 161,63.88 128,96.88 107.09,76 H 144 V 32 H 32 v 112 h 44 v -36.91 l 20.87,20.91 -33,33 31.13,31.05 33,-33 7.56,7.57 c -19.22984,25.80545 -29.59906,57.13761 -29.56,89.32 0,82.69 67.27,150 150,150 32.23663,0.0375 63.61741,-10.37245 89.44,-29.67 l 23.51,23.58 -33.14,33.05 31.11,31.1 33,-33 48.9,49 z m -330,-193 c 0,-42.87295 25.82621,-81.52466 65.43495,-97.9305 39.60865,-16.4058 85.19894,-7.33464 115.51456,22.98099 30.31563,30.31562 39.38679,75.90591 22.98099,115.51456 C 337.52466,336.11379 298.87295,361.94 256,361.94 c -58.52162,-0.0496 -105.95038,-47.47838 -106,-106 z"
     id="path4" />
</svg>

<svg xmlns="http://www.w3.org/2000/svg" width="512" height="512" viewBox="0 0 512 512"><title>ionicons-v5-q</title><path d="M480,448.94l-48.94-49.08L464,366.92l-31.1-31.11L400,368.71,376.45,345.1a149.64,149.64,0,0,0-.1-178.45l59.55-59.56V144h44V32h-112V76h36.87l-59.55,59.55a149.65,149.65,0,0,0-178.59,0L159.08,128l33-33L161,63.88l-33,33L107.09,76H144V32H32V144H76V107.09L96.87,128l-33,33L95,192.05l33-33,7.56,7.57A149.18,149.18,0,0,0,106,255.94c0,82.69,67.27,150,150,150a149.12,149.12,0,0,0,89.44-29.67l23.51,23.58L335.81,432.9,366.92,464l33-33,48.9,49Zm-330-193a106,106,0,1,1,106,106A106.09,106.09,0,0,1,150,255.94Z"/></svg>
